X:1
L:1/8
M:2/4
K:C
 E | A^GAB | c>dcc | BAA^G | A3 E | A^GAB | c>dcc | BAA^G | A3 c |: B>A B/c/d | G>A Gc | Bcde | 
 c3 c | B>A B/c/d | G>A Gc | BAA^G |1 A3 c :|
